X:1
T:James Gibb editions
T:Psalm 94 (Becker) - Schütz
%%score [ ( 1 2 ) ( 3 4 ) ]
L:1/8
Q:1/4=98
M:2/2
K:G
V:1 treble nm="Soprano Alto" snm="S. A."
V:2 treble 
V:3 bass nm="Tenor Bass" snm="T. B."
V:4 bass 
V:1
"^Cornelius Becker\n(1561-1604)""^Psalm 94, SWV 192""^Heinrich Schütz\n(1585-1672)" E4 B2 c2 | %1
w: ~Herr Gott, dem|
w: er- heb dich,|
 B4 G4 | A2 B2 E4 | =c4 B2 e2 | (d3 c B2) d2 | c8 | B8 :|[M:2/2] G4 F2 G2 | E4 A4 | A2 ^G2 A4 | %10
w: al- le|Rach heim- fällt,|Gott, des die|Rach, * * er-|schei-|ne,|ver- gilt ih-|nen, was|sie ver- dient,|
w: Rich- ter|al- les Welt,|wi- der die|stol\- * * zen|Fein-|de,||||
 =c4 B2 A2 | G4 E4 | (=FE) D2 C4 | e4 d2 c2 | (d3 c B2) A2 | (G2 FE F4) | E8 |] %17
w: wie lang soll|dies gott-|los * Ge- sind,|wie lang solln|sie * * doch|prah\- * * *|len.|
w: |||||||
V:2
 B,4 E2 E2 | E4 B,4 | D2 D2 ^C4 | E4 E2 G2 | G6 A2 | A8 | ^G8 :|[M:2/2] E4 ^D2 E2 | C4 E4 | %9
w: |||||||||
 =F2 E2 E4 | A4 ^G2 =F2 | E4 C4 | C2 B,2 C4 | G4 G2 E2 | G6 F2- | F2 (E4 ^D2) | E8 |] %17
w: |||||* doch|* prah\- *|len.|
V:3
 G,4 G,2 A,2 | G,4 E,4 | F,2 ^G,2 A,4 | A,,4 G,2 C2 | (B,3 C D2) =F2 | A,8 | E8 :| %7
[M:2/2] B,4 B,2 B,2 | A,4 C4 | D2 B,2 ^C4 | E4 E2 C2 | C4 G,4 | %12
"^4. Denn, der das Ohr geschaffen hat, sollt der selber nicht hören?\nUnd der das Auge hat gemacht, sollt der nicht sehen ferne?\nDer alle Heiden suchet heim, sollt der nicht ein Vergelter sein,\nder alle Manschen lehret?\n\n6. Der Herr ist treu, der wird ja nicht sein liebes Volk verstoßen,\nsein Erb, das er ihm zugericht, wird er ja nicht verlassen,\ndenn Recht muß dennoch bleiben Recht, all fromme Herzen\nwerden wohl bei dieser Weisheit bleiben." (A,G,) G,2 G,4 | %13
 C4 B,2 A,2 | (B,3 C D2) C2 | (^D2 E2 B,4) | B,8 |] %17
V:4
 E,4 E,2 A,,2 | E,4 E,4 | D,2 B,,2 A,,4 | A,,4 E,2 C,2 | G,6 D,2 | E,8 | E,8 :| %7
[M:2/2] E,4 B,,2 E,2 | A,,4 A,,4 | D,2 E,2 A,,4 | A,4 E,2 =F,2 | C,4 C,4 | (=F,C,) G,2 C,4 | %13
 C,4 G,2 A,2 | (G,4 G,,2) A,,2 | B,,8 | E,8 |] %17

